X: 166
T:Dutches Hamilton,of Wedicarmear(). JaW.165
T:Duchess of Hamilton's Rant,aka. JaW.165
M:6/8
L:1/8
Q:120
C:"...A Good Scotch Tune"
S:James Winder Ms, Lancashire, 1835-41
R:Jig
O:England
A:Wyresdale,Lancashire
N:
H:1/8
Z:vmp.Chris Partington, Aug 2004
K:D
f | ecA def|ecA d2f|ecA ecA|BcB d2f|!
ecA def|ecA d2f|faf edc|BcB d2:|!
|:f | ecA acA|ecA d2f| ecA acA|BcB d2f|!
ecA acA|ecA d2e|faf edc|BcB d2 :|]
